X: 17655
T: Hollow Rock, The
R: waltz
M: 3/4
K: Cmajor
|:CD|"C"E2D2C2|"F"F2A2 GF|"C"E2G2c2|"Am"e4 ga|
"G"g2f2e2|"F"f2A2B2|"C"e2c2A2|"G"G4 CD|
"C"E2D2C2|"F"F2A2 GF|"C"E2G2c2|"Am"e4 ga|
"G"g2f2e2|"F"f2A2B2|"C"c3 d cB|c4:|
|:gg|"C"c'2e2e2|"F"b2f2f2|"C"a2g2^f2|g4 ga|
"G"g2f2e2|"F"f2A2B2|"C"e2c2A2|"G"G4 gg|
"C"c'2e2e2|"F"b2f2f2|"C"a2g2^f2|g4 ga|
"G"g2f2e2|"F"f2A2B2|"C"c3 d cB|c4:|

